assets/svgs/shopping-grey/ShoppingGrey16.svg

<svg xmlns="http://www.w3.org/2000/svg" data-name="Layer 3" viewBox="0 0 128 128"><path d="M101.871 58.195V31.85a1.592 1.592 0 00-1.1-1.514L65.05 18.727a1.587 1.587 0 00-1.05.023 1.587 1.587 0 00-1.05-.023L27.226 30.336a1.592 1.592 0 00-1.1 1.514v26.284c-.016.384-1.018 38.552 37.034 51.137a1.569 1.569 0 00.5.081h.671a1.57 1.57 0 00.5-.081c38.057-12.584 37.054-50.753 37.04-51.076zm-37.794 47.974h-.155c-35.5-11.9-34.666-46.447-34.612-47.974V33.006l34.624-11.252.066-.024.065.023 34.624 11.253v25.249c.011.359.949 35.992-34.612 47.914z"/><path d="M91.593 36.607l-26.807-9.021a3.1 3.1 0 00-1.352 0l-26.807 9.021a1.594 1.594 0 00-1.083 1.509v20.525c.009.3 1.349 29.62 27.989 39.94a1.6 1.6 0 001.15 0c26.641-10.32 27.981-39.645 27.992-40V38.116a1.594 1.594 0 00-1.082-1.509zM64.11 95.386c-24.1-9.748-25.373-36.587-25.383-36.8V39.259l25.383-8.542 25.384 8.542v19.27c-.01.271-1.232 27.089-25.384 36.857z"/><path d="M80.751 52.041L61.577 75.005 49.188 62a1.592 1.592 0 10-2.306 2.194L60.5 78.493a1.6 1.6 0 001.153.494h.051a1.589 1.589 0 001.17-.57l20.32-24.337a1.591 1.591 0 00-2.443-2.039z"/></svg>

<svg id="Layer_3" data-name="Layer 3" xmlns="http://www.w3.org/2000/svg" viewBox="0 0 128 128"><title>Artboard 112</title><path d="M101.871,58.195V31.85a1.592,1.592,0,0,0-1.1-1.514L65.05,18.727A1.587,1.587,0,0,0,64,18.75a1.587,1.587,0,0,0-1.05-.023L27.226,30.336a1.592,1.592,0,0,0-1.1,1.514l0,26.284c-.016.384-1.018,38.552,37.034,51.137a1.569,1.569,0,0,0,.5.081h.671a1.57,1.57,0,0,0,.5-.081C102.888,96.687,101.885,58.518,101.871,58.195ZM64.077,106.169h-.155c-35.5-11.9-34.666-46.447-34.612-47.974V33.006L63.934,21.754,64,21.73l.065.023L98.689,33.006l0,25.249C98.7,58.614,99.638,94.247,64.077,106.169Z"/><path d="M91.593,36.607,64.786,27.586a3.1,3.1,0,0,0-1.352,0L36.627,36.607a1.594,1.594,0,0,0-1.083,1.509V58.641c.009.3,1.349,29.62,27.989,39.94a1.6,1.6,0,0,0,1.15,0c26.641-10.32,27.981-39.645,27.992-40V38.116A1.594,1.594,0,0,0,91.593,36.607ZM64.11,95.386c-24.1-9.748-25.373-36.587-25.383-36.8V39.259L64.11,30.717l25.384,8.542V58.529C89.484,58.8,88.262,85.618,64.11,95.386Z"/><path d="M80.751,52.041,61.577,75.005,49.188,62a1.592,1.592,0,1,0-2.306,2.194L60.5,78.493a1.6,1.6,0,0,0,1.153.494c.017,0,.034,0,.051,0a1.589,1.589,0,0,0,1.17-.57L83.194,54.08a1.591,1.591,0,0,0-2.443-2.039Z"/></svg>
